src/images/change_language.svg

<svg width="32" height="32" viewBox="0 0 32 32" fill="none" xmlns="http://www.w3.org/2000/svg">
<path d="M22.2362 10.9967C19.5135 12.5461 18.4554 12.5216 18.0872 12.5216C17.3916 12.5216 17.6 11.6281 17.0438 10.7824C16.6263 10.1478 15.3643 9.69943 15.3046 9.04329C15.2661 8.61957 15.3675 8.27297 15.4674 8.01953C13.9197 8.12192 12.4914 8.66585 11.3069 9.52709C11.8046 9.92228 12.5343 10.6004 12.85 11.1294C13.1603 11.6492 13.8493 13.0961 13.2177 13.9129C12.5033 14.8367 10.4351 15.1485 10.4351 15.9998C10.4351 16.6404 11.3419 17.3716 11.8264 18.0868C12.5549 19.1622 12.2234 20.2041 11.8264 20.8694C11.6677 21.1353 11.1451 21.6854 10.7462 22.0249C12.153 23.2532 13.9905 23.9998 16.0003 23.9998C20.4115 23.9998 24.0003 20.411 24.0003 15.9998C24.0003 14.1076 23.3385 12.3679 22.2362 10.9967ZM16.6959 20.8694C15.6525 20.1737 16.8698 19.2462 16.0102 16.6283C15.6505 15.5333 17.1003 14.5414 18.4449 14.5414C19.7896 14.5414 20.8642 15.4758 20.8797 16.6283C20.9087 18.7732 17.9723 21.7203 16.6959 20.8694Z" fill="#68DBF4"/>
<path d="M15.3043 9.04348C15.3386 9.42052 15.7699 9.72894 16.2098 10.0435C16.5355 10.2764 16.8658 10.5126 17.0434 10.7826C17.2666 11.1219 17.3667 11.4689 17.4514 11.7628C17.5779 12.2014 17.6703 12.5217 18.0869 12.5217L18.1039 12.5218C18.487 12.5221 19.5539 12.5232 22.2358 10.9969C20.7683 9.17145 18.5189 8 15.9999 8C15.8207 8 15.6434 8.00807 15.4671 8.01972C15.3671 8.27316 15.2657 8.61976 15.3043 9.04348Z" fill="#14C393"/>
<path d="M11.8261 20.8696C12.2231 20.2044 12.5546 19.1624 11.8261 18.087C11.6661 17.8508 11.46 17.6129 11.2557 17.377C10.8415 16.8987 10.4348 16.4291 10.4348 16.0001C10.4348 15.5327 11.0581 15.2279 11.7386 14.8952C12.2976 14.6219 12.8952 14.3298 13.2174 13.9131C13.849 13.0964 13.16 11.6494 12.8497 11.1296C12.534 10.6007 11.8043 9.92253 11.3066 9.52734C9.30488 10.9828 8 13.3413 8 16.0001C8 18.4015 9.06509 20.5575 10.746 22.0252C11.1449 21.6856 11.6674 21.1356 11.8261 20.8696Z" fill="#14C393"/>
<path d="M16.0098 16.6286C15.6501 15.5335 17.0999 14.5417 18.4445 14.5417C19.7892 14.5417 20.8638 15.4761 20.8793 16.6286C20.9083 18.7735 17.9719 21.7206 16.6955 20.8697C16.1754 20.5229 16.217 20.1186 16.2831 19.476C16.3496 18.8294 16.4409 17.9416 16.0098 16.6286Z" fill="#14C393"/>
</svg>

<svg width="32" height="32" fill="none" xmlns="http://www.w3.org/2000/svg"><path d="M22.236 10.997c-2.723 1.55-3.78 1.525-4.149 1.525-.695 0-.487-.894-1.043-1.74-.418-.634-1.68-1.083-1.74-1.739-.038-.423.063-.77.163-1.023a7.952 7.952 0 0 0-4.16 1.507c.498.395 1.227 1.073 1.543 1.602.31.52 1 1.967.368 2.784-.715.924-2.783 1.236-2.783 2.087 0 .64.907 1.372 1.391 2.087.729 1.075.397 2.117 0 2.782-.158.266-.68.816-1.08 1.156A7.964 7.964 0 0 0 16 24c4.412 0 8-3.589 8-8a7.96 7.96 0 0 0-1.764-5.003zm-5.54 9.872c-1.044-.695.174-1.623-.686-4.24-.36-1.096 1.09-2.088 2.435-2.088s2.42.935 2.435 2.087c.029 2.145-2.908 5.092-4.184 4.241z" fill="#68DBF4"/><path d="M15.304 9.043c.035.378.466.686.906 1 .325.233.656.47.833.74.224.339.324.686.408.98.127.438.22.759.636.759h.017c.383 0 1.45.001 4.132-1.525a7.987 7.987 0 0 0-6.769-2.977c-.1.253-.201.6-.163 1.023zM11.826 20.87c.397-.666.729-1.708 0-2.783-.16-.236-.366-.474-.57-.71-.415-.478-.821-.948-.821-1.377 0-.467.623-.772 1.304-1.105.559-.273 1.156-.565 1.478-.982.632-.817-.057-2.264-.367-2.783-.316-.53-1.046-1.207-1.543-1.603A7.993 7.993 0 0 0 8 16a7.982 7.982 0 0 0 2.746 6.025c.399-.34.921-.89 1.08-1.155zM16.01 16.629c-.36-1.096 1.09-2.087 2.434-2.087 1.345 0 2.42.934 2.435 2.087.03 2.144-2.907 5.092-4.184 4.24-.52-.346-.478-.75-.412-1.393.067-.647.158-1.534-.273-2.847z" fill="#14C393"/></svg>
